X:1
T:Minsk, 77.77.77 D
T:Minsk, 77.77.77 D
T:William T. Meyer, 1912
T:Public Domain Courtesy of the Cyber Hymnal™
C:William T. Meyer, 1912
Z:Public Domain
Z:Courtesy of the Cyber Hymnal™
%%score ( 1 2 ) ( 3 4 )
L:1/8
Q:1/4=85
M:6/8
K:Ab
V:1 treble 
V:2 treble 
V:3 bass 
V:4 bass 
V:1
 E/E/ | [CF]2 [CF] [CA]2 [CA] | [DG]3- [DG]2 [EG]/[EG]/ | [EA]2 [EA] [DGBd]2 [DGBd] | %4
 [CEAc]3- [CEAc]2 [EAc]/[EAc]/ | [=EAc]2 [EGB] [EA]2 [EG] | [CFA]3- [CFA]2 [CFAc]/[CFAc]/ | %7
 [=DFAB]2 [DFAc] [DFAB]2 [DF] | [DEGB]3- [DEGB]2 E/E/ | [CF]2 [CF] [CA]2 [CA] | %10
 [DG]3- [DG]2 [EG]/[EG]/ | [EA]2 [EA] [DFAd]2 [CEAc] | [B,EGB]3- [B,EGB]2 [CAc]/[DBd]/ | %13
 [Ece]2 [CAc] [B,GB]2 [CGc] | [A,FA]3 !fermata![DFd]2 [DFA]/[D_FB]/ | [CEAc]2 [CE] [DEGB]2 [CEA] | %16
 [CEA]3- [CEA]2 | [Ac]/[Ad]/ | [Ae]2 [Ac] ([GB][FA])[GB] | [Ac]3- [Ac]2 [Ac]/[Ad]/ | %20
 [Ae]2 [Ac] (AB)[Ac] | B3- !fermata![GB]2 [EA]/[EB]/ | (c>=B)[Ac] (A_B)[Ec] | %23
 ([Dd-]3 !fermata![Fd]2)"^rit." [FA]/[_FB]/ | [Ec]2 [CE] [DB]2 [CA] | [CA]3- [CA]2 |] %26
V:2
 x | x6 | x6 | x6 | x6 | x6 | x6 | x6 | x6 | x6 | x6 | x6 | x6 | x6 | x6 | x6 | x5 | x | x6 | x6 | %20
 x3 A2 x | G2- A x3 | A2 E2 x2 | x6 | x6 | x5 |] %26
V:3
 E,/E,/ | F,2 F, A,2 A, | G,3- [E,G,]2 G,/G,/ | A,2 A, B,,2 E, | (A,,2 E, A,2) [A,,A,] | %5
 C,2 G, C2 C, | (F,,2 C, F,2) [F,,F,] | B,,2 F, B,2 B,, | (E,,2 B,, E,2) E,/E,/ | F,2 F, A,2 A, | %10
 G,3- [E,G,]2 G,/G,/ | A,2 A, [D,,D,]3 | (E,,2 B,, E,2) z | [A,,A,]3 [E,,E,]2 [=E,,=E,] | %14
 [F,,F,]3 !fermata![B,,,B,,]2 [D,,D,] | [E,,E,]3 [E,,E,]3 | A,,3- A,,2 | A,/[A,B,]/ | %18
 [A,C]2 [A,E] [E,E]2 [E,E] | [A,E]2 [E,E] [A,E]2 A,/[A,B,]/ | [A,C]2 [A,E] [F,=D]2 [B,,D] | %21
 ([E,E]2 [F,=D] !fermata![E,_D]2) [B,D]/[A,D]/ | (E>=D)[A,E] ([A,C][G,B,])[G,A,] | %23
 ([F,A,]2 [F,A,] !fermata![D,A,]2) [D,A,]/[D,A,]/ | [E,A,]2 [E,A,] [E,G,]2 [E,A,] | %25
 [A,,A,]3- [A,,A,]2 |] %26
V:4
 x | A,,3 E,3 | B,,2 F, x3 | C,3 x3 | x6 | x6 | x6 | x6 | x6 | A,,3 E,3 | B,,2 E, x3 | C,3 x3 | %12
 x6 | x6 | x6 | x6 | x5 | A,/ x/ | x6 | x5 A,/ x/ | x6 | x6 | A,2 x4 | x6 | x6 | x5 |] %26

